static/img/kroki/c99c186acb896814a763576ec91726bb.svg

<?xml version="1.0" encoding="us-ascii" standalone="no"?><svg xmlns="http://www.w3.org/2000/svg" xmlns:xlink="http://www.w3.org/1999/xlink" contentStyleType="text/css" height="252px" preserveAspectRatio="none" style="width:532px;height:252px;" version="1.1" viewBox="0 0 532 252" width="532px" zoomAndPan="magnify"><defs/><g><!--class azure_compute_availability_set--><g id="elem_azure_compute_availability_set"><rect codeLine="23" fill="#3D176E" height="39.7891" id="azure_compute_availability_set" rx="2.5" ry="2.5" style="stroke:#000D19;stroke-width:0.5;" width="305" x="191.5" y="7"/><ellipse cx="206.5" cy="26.8945" fill="#ADD1B2" rx="11" ry="11" style="stroke:#181818;stroke-width:1.0;"/><path d="M209.4688,32.5352 Q208.8906,32.832 208.25,32.9727 Q207.6094,33.1289 206.9063,33.1289 Q204.4063,33.1289 203.0781,31.4883 Q201.7656,29.832 201.7656,26.707 Q201.7656,23.582 203.0781,21.9258 Q204.4063,20.2695 206.9063,20.2695 Q207.6094,20.2695 208.25,20.4258 Q208.9063,20.582 209.4688,20.8789 L209.4688,23.5977 Q208.8438,23.0195 208.25,22.7539 Q207.6563,22.4727 207.0313,22.4727 Q205.6875,22.4727 205,23.5508 Q204.3125,24.6133 204.3125,26.707 Q204.3125,28.8008 205,29.8789 Q205.6875,30.9414 207.0313,30.9414 Q207.6563,30.9414 208.25,30.6758 Q208.8438,30.3945 209.4688,29.8164 L209.4688,32.5352 Z " fill="#000000"/><text fill="#D9B8FF" font-family="Helvetica" font-size="17" lengthAdjust="spacing" textLength="263" x="225.5" y="32.7798">azure_compute_availability_set</text></g><!--class azure_compute_proximity_placement_group--><g id="elem_azure_compute_proximity_placement_group"><rect codeLine="26" fill="#3D176E" height="39.7891" id="azure_compute_proximity_placement_group" rx="2.5" ry="2.5" style="stroke:#000D19;stroke-width:0.5;" width="414" x="7" y="106.79"/><ellipse cx="22" cy="126.6845" fill="#ADD1B2" rx="11" ry="11" style="stroke:#181818;stroke-width:1.0;"/><path d="M24.9688,132.3252 Q24.3906,132.622 23.75,132.7627 Q23.1094,132.9189 22.4063,132.9189 Q19.9063,132.9189 18.5781,131.2783 Q17.2656,129.622 17.2656,126.497 Q17.2656,123.372 18.5781,121.7158 Q19.9063,120.0595 22.4063,120.0595 Q23.1094,120.0595 23.75,120.2158 Q24.4063,120.372 24.9688,120.6689 L24.9688,123.3877 Q24.3438,122.8095 23.75,122.5439 Q23.1563,122.2627 22.5313,122.2627 Q21.1875,122.2627 20.5,123.3408 Q19.8125,124.4033 19.8125,126.497 Q19.8125,128.5908 20.5,129.6689 Q21.1875,130.7314 22.5313,130.7314 Q23.1563,130.7314 23.75,130.4658 Q24.3438,130.1845 24.9688,129.6064 L24.9688,132.3252 Z " fill="#000000"/><text fill="#D9B8FF" font-family="Helvetica" font-size="17" lengthAdjust="spacing" textLength="372" x="41" y="132.5698">azure_compute_proximity_placement_group</text></g><!--class azure_compute_virtual_machine_base--><g id="elem_azure_compute_virtual_machine_base"><rect codeLine="29" fill="#3D176E" height="39.7891" id="azure_compute_virtual_machine_base" rx="2.5" ry="2.5" style="stroke:#000D19;stroke-width:0.5;" width="362" x="163" y="206.58"/><ellipse cx="178" cy="226.4745" fill="#ADD1B2" rx="11" ry="11" style="stroke:#181818;stroke-width:1.0;"/><path d="M180.9688,232.1152 Q180.3906,232.412 179.75,232.5527 Q179.1094,232.7089 178.4063,232.7089 Q175.9063,232.7089 174.5781,231.0683 Q173.2656,229.412 173.2656,226.287 Q173.2656,223.162 174.5781,221.5058 Q175.9063,219.8495 178.4063,219.8495 Q179.1094,219.8495 179.75,220.0058 Q180.4063,220.162 180.9688,220.4589 L180.9688,223.1777 Q180.3438,222.5995 179.75,222.3339 Q179.1563,222.0527 178.5313,222.0527 Q177.1875,222.0527 176.5,223.1308 Q175.8125,224.1933 175.8125,226.287 Q175.8125,228.3808 176.5,229.4589 Q177.1875,230.5214 178.5313,230.5214 Q179.1563,230.5214 179.75,230.2558 Q180.3438,229.9745 180.9688,229.3964 L180.9688,232.1152 Z " fill="#000000"/><text fill="#D9B8FF" font-family="Helvetica" font-size="17" lengthAdjust="spacing" textLength="320" x="197" y="232.3598">azure_compute_virtual_machine_base</text></g><!--link azure_compute_availability_set to azure_compute_proximity_placement_group--><g id="link_azure_compute_availability_set_azure_compute_proximity_placement_group"><path codeLine="32" d="M318.32,47.22 C295.53,64.36 267.2044,85.6626 244.4244,102.8026 " fill="none" id="azure_compute_availability_set-to-azure_compute_proximity_placement_group" style="stroke:#1A83AF;stroke-width:2.0;"/><polygon fill="#1A83AF" points="239.63,106.41,249.2266,104.1952,243.6254,103.4038,244.4167,97.8026,239.63,106.41" style="stroke:#1A83AF;stroke-width:2.0;"/></g><!--link azure_compute_availability_set to azure_compute_virtual_machine_base--><g id="link_azure_compute_availability_set_azure_compute_virtual_machine_base"><path codeLine="33" d="M380.33,47.16 C401.72,60.69 426.88,80.98 439,106.79 C446.51,122.8 446.51,130.57 439,146.58 C426.88,172.39 406.7907,189.4726 385.4007,203.0026 " fill="none" id="azure_compute_availability_set-to-azure_compute_virtual_machine_base" style="stroke:#1A83AF;stroke-width:2.0;"/><polygon fill="#1A83AF" points="380.33,206.21,390.0744,204.7793,384.5556,203.5371,385.7978,198.0184,380.33,206.21" style="stroke:#1A83AF;stroke-width:2.0;"/></g><!--link azure_compute_proximity_placement_group to azure_compute_virtual_machine_base--><g id="link_azure_compute_proximity_placement_group_azure_compute_virtual_machine_base"><path codeLine="34" d="M239.68,147.01 C262.47,164.15 290.7956,185.4526 313.5756,202.5926 " fill="none" id="azure_compute_proximity_placement_group-to-azure_compute_virtual_machine_base" style="stroke:#1A83AF;stroke-width:2.0;"/><polygon fill="#1A83AF" points="318.37,206.2,313.5833,197.5926,314.3746,203.1938,308.7734,203.9852,318.37,206.2" style="stroke:#1A83AF;stroke-width:2.0;"/></g><!--SRC=[fP9DJm8n48Rl-okQS2PX9GfSJ5OIeXTYn9inczbsoZRqOpFjWc3yxxAYPjdbotZj-tJccMbp9P2XASAQ6JGPae_yGja220nBYDngxBGZrf4IP7_G32VEXhF050ooUzHB38f3atZE5LzOz9vTrQ8xu8ivkTAANVb0OFqsGXjgr5Y3zqa8fB8oO4r6ZBAXb4soMRJJ5_7W1bkO8u7qZVHwFH6FciZPLYVd_YLcQeCihYzjwWAsD5ijlgYJbXLHasmD-fCVTNm48PITi-lQsTFEYIpItlai1-5M5Ir1-teR7v3GXNM1uzPKE1eAEJW8Fno38rwjZi6c94ovCyNssLDOWjAGAQt2ElKOs7iKVHma2t9lobHOeO6ZsVwcj6fJ7B-oL1HAqAa1dYkBQGOUT_GPYUvB9qw6_MJoshszLECVDGzvHfTE_zUwdm00]--></g></svg>

<svg xmlns="http://www.w3.org/2000/svg" width="532" height="252" viewBox="0 0 532 252"><rect width="305" height="39.789" x="191.5" y="7" fill="#3D176E" rx="2.5" ry="2.5" style="stroke:#000d19;stroke-width:.5"/><circle cx="206.5" cy="26.895" r="11" fill="#ADD1B2" style="stroke:#181818;stroke-width:1"/><path d="M209.469 32.535q-.578.297-1.219.438-.64.156-1.344.156-2.5 0-3.828-1.64-1.312-1.657-1.312-4.782t1.312-4.781q1.328-1.656 3.828-1.656.703 0 1.344.156.656.156 1.219.453v2.719q-.625-.578-1.219-.844-.594-.281-1.219-.281-1.344 0-2.031 1.078-.687 1.062-.687 3.156t.687 3.172q.688 1.062 2.031 1.062.625 0 1.219-.265.594-.281 1.219-.86z"/><text x="225.5" y="32.78" fill="#D9B8FF" font-family="Helvetica" font-size="17" textLength="263">azure_compute_availability_set</text><rect width="414" height="39.789" x="7" y="106.79" fill="#3D176E" rx="2.5" ry="2.5" style="stroke:#000d19;stroke-width:.5"/><circle cx="22" cy="126.684" r="11" fill="#ADD1B2" style="stroke:#181818;stroke-width:1"/><path d="M24.969 132.325q-.578.297-1.219.438-.64.156-1.344.156-2.5 0-3.828-1.64-1.312-1.657-1.312-4.782t1.312-4.781q1.328-1.656 3.828-1.656.703 0 1.344.156.656.156 1.219.453v2.719q-.625-.579-1.219-.844-.594-.281-1.219-.281-1.343 0-2.031 1.078-.687 1.062-.687 3.156t.687 3.172q.688 1.062 2.031 1.062.625 0 1.219-.265.594-.281 1.219-.86z"/><text x="41" y="132.57" fill="#D9B8FF" font-family="Helvetica" font-size="17" textLength="372">azure_compute_proximity_placement_group</text><rect width="362" height="39.789" x="163" y="206.58" fill="#3D176E" rx="2.5" ry="2.5" style="stroke:#000d19;stroke-width:.5"/><circle cx="178" cy="226.475" r="11" fill="#ADD1B2" style="stroke:#181818;stroke-width:1"/><path d="M180.969 232.115q-.578.297-1.219.438-.64.156-1.344.156-2.5 0-3.828-1.64-1.312-1.657-1.312-4.782t1.312-4.781q1.328-1.656 3.828-1.656.703 0 1.344.156.656.156 1.219.453v2.719q-.625-.578-1.219-.844-.594-.281-1.219-.281-1.344 0-2.031 1.078-.687 1.062-.687 3.156t.687 3.172q.688 1.062 2.031 1.062.625 0 1.219-.265.594-.281 1.219-.86z"/><text x="197" y="232.36" fill="#D9B8FF" font-family="Helvetica" font-size="17" textLength="320">azure_compute_virtual_machine_base</text><path fill="none" d="M318.32 47.22c-22.79 17.14-51.116 38.443-73.896 55.583" style="stroke:#1a83af;stroke-width:2"/><path fill="#1A83AF" d="m239.63 106.41 9.597-2.215-5.602-.791.792-5.601z" style="stroke:#1a83af;stroke-width:2"/><path fill="none" d="M380.33 47.16c21.39 13.53 46.55 33.82 58.67 59.63 7.51 16.01 7.51 23.78 0 39.79-12.12 25.81-32.21 42.893-53.6 56.423" style="stroke:#1a83af;stroke-width:2"/><path fill="#1A83AF" d="m380.33 206.21 9.744-1.43-5.518-1.243 1.242-5.519z" style="stroke:#1a83af;stroke-width:2"/><path fill="none" d="M239.68 147.01c22.79 17.14 51.116 38.443 73.896 55.583" style="stroke:#1a83af;stroke-width:2"/><path fill="#1A83AF" d="m318.37 206.2-4.787-8.607.792 5.6-5.602.792z" style="stroke:#1a83af;stroke-width:2"/></svg>
